X: 637
T:Miss McGuinness
M:4/4
L:1/8
S:Paul Carton
R:Reel
N:Posted to the woodenflute mailing list March 2003
Z:Andrew Pickering
K:G
dGG2 dGBd|dBge dGG2|dGG2 dGBd|(3gfe dB BAA2:|
(3fga af g3e|dBB2 defa|(3fga af g3e|dBGA BAA2|
(3fga af g3e|dBB2 dega|bagb afge|dBGA BAA2||

